X:5
T:Rondeau? Chapelloise?
Z:Dave Holland <dave@biff.org.uk>
S:St Chartier festival 2002
M:6/8
L:1/8
Q:3/8=130
K:C
g|e2c e2g|fef d2g|e2c e2g|f3 d3:|
ggg g3|agf e3|c2d e2g|1 fed e2c:|2 fed c2|]
<end>
<start>
